src/16/panel/persepolis-tray.svg

<svg xmlns="http://www.w3.org/2000/svg" width="16" height="16" version="1">
 <defs>
  <style id="current-color-scheme" type="text/css">
   .ColorScheme-Text { color:#bebebe; } .ColorScheme-Highlight { color:#5294e2; }
  </style>
 </defs>
 <path style="fill:currentColor" class="ColorScheme-Text" d="M 8 1 A 7 7 0 0 0 1 8 A 7 7 0 0 0 8 15 A 7 7 0 0 0 15 8 A 7 7 0 0 0 8 1 z M 5 3 C 6.6 4.2 10.298967 4.201999 12 4.5 C 10.821221 4.7616295 8.8828226 4.8157437 7.2304688 5.1523438 C 8.6561434 6.1680861 9.391453 6.2182015 11 6.5 C 9.287227 6.8801489 8.6393061 6.8421866 7.2109375 7.8613281 C 8.8952874 8.2286678 10.878459 8.3035192 12 8.5 C 10.196179 8.900357 6.6 8.8 5 10 L 6.5 10.199219 L 8 10 C 6.8 11.6 6.7980011 12.298967 6.5 14 C 6.0996432 12.196179 6.2 11.6 5 10 L 5.1992188 8.5 L 5 7 C 5.5052456 7.3789342 6.2285944 7.6313016 7.0234375 7.8183594 L 7.1992188 6.5 L 7.0273438 5.1992188 C 6.2334253 5.3758405 5.5105256 5.6171058 5 6 L 5.1992188 4.5 L 5 3 z M 9 10 L 10.5 10.199219 L 12 10 C 10.8 11.6 10.798001 12.298967 10.5 14 C 10.099643 12.196179 10.2 11.6 9 10 z"/>
</svg>

<svg xmlns="http://www.w3.org/2000/svg" width="16" height="16" version="1"><defs><style id="current-color-scheme" type="text/css"></style></defs><path d="M8 1a7 7 0 0 0-7 7 7 7 0 0 0 7 7 7 7 0 0 0 7-7 7 7 0 0 0-7-7zM5 3c1.6 1.2 5.299 1.202 7 1.5-1.179.262-3.117.316-4.77.652C8.656 6.168 9.391 6.218 11 6.5c-1.713.38-2.36.342-3.79 1.361 1.685.368 3.668.443 4.79.639-1.804.4-5.4.3-7 1.5l1.5.2L8 10c-1.2 1.6-1.202 2.299-1.5 4-.4-1.804-.3-2.4-1.5-4l.2-1.5L5 7c.505.379 1.229.631 2.023.818L7.2 6.5l-.172-1.3c-.794.176-1.516.417-2.027.8l.2-1.5L5 3zm4 7l1.5.2L12 10c-1.2 1.6-1.202 2.299-1.5 4-.4-1.804-.3-2.4-1.5-4z" fill="currentColor" color="#bebebe"/></svg>
